src/images/instagram.svg

<svg fill="#fff" height="24" viewBox="0 0 24 24" width="24" xmlns="http://www.w3.org/2000/svg"><g fill-rule="evenodd"><path d="m11.9810941.03781182c-3.25386438 0-3.66186438.01370678-4.93974618.07210503-1.27530853.0582407-2.1462407.26074398-2.90825383.55688403-.78790372.30617067-1.45607002.7158512-2.12213567 1.38191684-.66606564.66606565-1.07574617 1.33428447-1.38186433 2.12213568-.29629759.76211815-.49880087 1.63305032-.55693654 2.90830634-.05834573 1.27788184-.07210503 1.68582934-.07210503 4.93969366 0 3.2539694.0137593 3.6619169.07210503 4.9397987.05813567 1.275256.26063895 2.1461882.55693654 2.9083063.30611816.7878513.71579869 1.4560701 1.38186433 2.1221357.66606565.6660656 1.33423195 1.0757462 2.12213567 1.3819168.76201313.2961401 1.6329453.4986434 2.90825383.5568841 1.2778818.0582932 1.6858818.072105 4.93974618.072105 3.2538643 0 3.6619168-.0138118 4.9397987-.072105 1.275256-.0582407 2.1461882-.260744 2.9082538-.5568841.7879037-.3061706 1.4560175-.7158512 2.1220831-1.3819168.6660657-.6660656 1.0757463-1.3342844 1.3819169-2.1221357.2962451-.7621181.4987484-1.6330503.5569365-2.9083063.0583458-1.2778818.0720526-1.6858293.0720526-4.9397987 0-3.25386432-.0137068-3.66181182-.0720526-4.93969366-.0581881-1.27525602-.2606914-2.14618819-.5569365-2.90830634-.3061706-.78785121-.7158512-1.45607003-1.3819169-2.12213568-.6660656-.66606564-1.3341794-1.07574617-2.1220831-1.38191684-.7620656-.29614005-1.6329978-.49864333-2.9082538-.55688403-1.2778819-.05839825-1.6859344-.07210503-4.9397987-.07210503m0 2.1587396c3.1990897 0 3.5779431.01218381 4.841383.06979431 1.1681225.05330416 1.8025207.24856018 2.2247001.41256893.5592999.21736543.9584246.47700657 1.3776105.89624508.4193436.41929102.6789847.81836323.8962452 1.3776105.1640087.42217943.3592647 1.0566302.4125689 2.22470022.0576105 1.26343979.0698468 1.64229322.0698468 4.84138294 0 3.1991948-.0122363 3.5780481-.0698468 4.8413829-.0533042 1.1681751-.2485602 1.8026259-.4125689 2.2248053-.2172605.5591947-.4769016.9583195-.8962452 1.3776105-.4191859.4192385-.8183106.6788797-1.3776105.8961925-.4221794.1640613-1.0565776.3593173-2.2247001.4125165-1.2632298.0577155-1.6420307.0698468-4.841383.0698468-3.19935228 0-3.5781532-.0121313-4.84138294-.0698468-1.16807002-.0531992-1.80252079-.2484552-2.22470022-.4125165-.55924726-.2173128-.95837199-.476954-1.3776105-.8961925-.41918599-.419291-.67882714-.8184158-.89619256-1.3776105-.16406127-.4221794-.35926477-1.0566302-.41262144-2.2248053-.05755799-1.2633348-.06979431-1.6421881-.06979431-4.8413829 0-3.19908972.01223632-3.57794315.06979431-4.84138294.05335667-1.16807002.24856017-1.80252079.41262144-2.22470022.21736542-.55924727.47700657-.95831948.89619256-1.3776105.41923851-.41923851.81836324-.67887965 1.3776105-.89624508.42217943-.16400875 1.0566302-.35926477 2.22470022-.41256893 1.26343981-.0576105 1.64229324-.06979431 4.84138294-.06979431"/><path d="m11.9810941 16.0125689c-2.20563677 0-3.99371552-1.7880262-3.99371552-3.9937155 0-2.2056368 1.78807875-3.99366305 3.99371552-3.99366305 2.2056893 0 3.9937156 1.78802625 3.9937156 3.99366305 0 2.2056893-1.7880263 3.9937155-3.9937156 3.9937155m0-10.14611814c-3.39786438 0-6.15240263 2.75459081-6.15240263 6.15240264 0 3.3979694 2.75453825 6.1524552 6.15240263 6.1524552 3.3978643 0 6.1524026-2.7544858 6.1524026-6.1524552 0-3.39781183-2.7545383-6.15240264-6.1524026-6.15240264"/><path d="m19.8143895 5.6233523c0 .79399562-.6436936 1.43774179-1.4377418 1.43774179-.7939956 0-1.4377418-.64374617-1.4377418-1.43774179 0-.79404814.6437462-1.4377418 1.4377418-1.4377418.7940482 0 1.4377418.64369366 1.4377418 1.4377418"/></g></svg>

<?xml version="1.0" encoding="UTF-8" standalone="no"?>
<svg width="24px" height="24px" fill="#fff" viewBox="0 0 24 24" version="1.1" xmlns="http://www.w3.org/2000/svg" xmlns:xlink="http://www.w3.org/1999/xlink">
  <g id="Page-1" stroke="none" stroke-width="1" fill-rule="evenodd">
    <g id="instagram-1">
      <g id="Page-1">
        <g id="Instagram-icon-black">
          <g id="Group-3">
            <path d="M11.9810941,0.0378118162 C8.72722972,0.0378118162 8.31922972,0.0515185996 7.04134792,0.109916849 C5.76603939,0.16815755 4.89510722,0.370660832 4.13309409,0.666800876 C3.34519037,0.97297155 2.67702407,1.38265208 2.01095842,2.04871772 C1.34489278,2.71478337 0.935212253,3.38300219 0.629094092,4.1708534 C0.332796499,4.93297155 0.130293217,5.80390372 0.0721575492,7.07915974 C0.0138118162,8.35704158 5.25164114e-05,8.76498908 5.25164114e-05,12.0188534 C5.25164114e-05,15.2728228 0.0138118162,15.6807703 0.0721575492,16.9586521 C0.130293217,18.2339081 0.332796499,19.1048403 0.629094092,19.8669584 C0.935212253,20.6548097 1.34489278,21.3230285 2.01095842,21.9890941 C2.67702407,22.6551597 3.34519037,23.0648403 4.13309409,23.3710109 C4.89510722,23.667151 5.76603939,23.8696543 7.04134792,23.927895 C8.31922972,23.9861882 8.72722972,24 11.9810941,24 C15.2349584,24 15.6430109,23.9861882 16.9208928,23.927895 C18.1961488,23.8696543 19.067081,23.667151 19.8291466,23.3710109 C20.6170503,23.0648403 21.2851641,22.6551597 21.9512297,21.9890941 C22.6172954,21.3230285 23.026976,20.6548097 23.3331466,19.8669584 C23.6293917,19.1048403 23.831895,18.2339081 23.8900831,16.9586521 C23.9484289,15.6807703 23.9621357,15.2728228 23.9621357,12.0188534 C23.9621357,8.76498908 23.9484289,8.35704158 23.8900831,7.07915974 C23.831895,5.80390372 23.6293917,4.93297155 23.3331466,4.1708534 C23.026976,3.38300219 22.6172954,2.71478337 21.9512297,2.04871772 C21.2851641,1.38265208 20.6170503,0.97297155 19.8291466,0.666800876 C19.067081,0.370660832 18.1961488,0.16815755 16.9208928,0.109916849 C15.6430109,0.0515185996 15.2349584,0.0378118162 11.9810941,0.0378118162 M11.9810941,2.19655142 C15.1801838,2.19655142 15.5590372,2.20873523 16.8224771,2.26634573 C17.9905996,2.31964989 18.6249978,2.51490591 19.0471772,2.67891466 C19.6064771,2.89628009 20.0056018,3.15592123 20.4247877,3.57515974 C20.8441313,3.99445076 21.1037724,4.39352297 21.3210329,4.95277024 C21.4850416,5.37494967 21.6802976,6.00940044 21.7336018,7.17747046 C21.7912123,8.44091025 21.8034486,8.81976368 21.8034486,12.0188534 C21.8034486,15.2180482 21.7912123,15.5969015 21.7336018,16.8602363 C21.6802976,18.0284114 21.4850416,18.6628622 21.3210329,19.0850416 C21.1037724,19.6442363 20.8441313,20.0433611 20.4247877,20.4626521 C20.0056018,20.8818906 19.6064771,21.1415318 19.0471772,21.3588446 C18.6249978,21.5229059 17.9905996,21.7181619 16.8224771,21.7713611 C15.5592473,21.8290766 15.1804464,21.8412079 11.9810941,21.8412079 C8.78174182,21.8412079 8.4029409,21.8290766 7.13971116,21.7713611 C5.97164114,21.7181619 5.33719037,21.5229059 4.91501094,21.3588446 C4.35576368,21.1415318 3.95663895,20.8818906 3.53740044,20.4626521 C3.11821445,20.0433611 2.8585733,19.6442363 2.64120788,19.0850416 C2.47714661,18.6628622 2.28194311,18.0284114 2.22858644,16.8602363 C2.17102845,15.5969015 2.15879213,15.2180482 2.15879213,12.0188534 C2.15879213,8.81976368 2.17102845,8.44091025 2.22858644,7.17747046 C2.28194311,6.00940044 2.47714661,5.37494967 2.64120788,4.95277024 C2.8585733,4.39352297 3.11821445,3.99445076 3.53740044,3.57515974 C3.95663895,3.15592123 4.35576368,2.89628009 4.91501094,2.67891466 C5.33719037,2.51490591 5.97164114,2.31964989 7.13971116,2.26634573 C8.40315097,2.20873523 8.7820044,2.19655142 11.9810941,2.19655142" id="Shape"></path>
          </g>
          <path d="M11.9810941,16.0125689 C9.77545733,16.0125689 7.98737858,14.2245427 7.98737858,12.0188534 C7.98737858,9.8132166 9.77545733,8.02519035 11.9810941,8.02519035 C14.1867834,8.02519035 15.9748097,9.8132166 15.9748097,12.0188534 C15.9748097,14.2245427 14.1867834,16.0125689 11.9810941,16.0125689 M11.9810941,5.86645076 C8.58322972,5.86645076 5.82869147,8.62104157 5.82869147,12.0188534 C5.82869147,15.4168228 8.58322972,18.1713086 11.9810941,18.1713086 C15.3789584,18.1713086 18.1334967,15.4168228 18.1334967,12.0188534 C18.1334967,8.62104157 15.3789584,5.86645076 11.9810941,5.86645076" id="Shape"></path>
          <path d="M19.8143895,5.6233523 C19.8143895,6.41734792 19.1706959,7.06109409 18.3766477,7.06109409 C17.5826521,7.06109409 16.9389059,6.41734792 16.9389059,5.6233523 C16.9389059,4.82930416 17.5826521,4.1856105 18.3766477,4.1856105 C19.1706959,4.1856105 19.8143895,4.82930416 19.8143895,5.6233523" id="Shape"></path>
        </g>
      </g>
    </g>
  </g>
</svg>
